exports/infant-mortality-rates-uk_v1_850x600.svg

<svg xmlns="http://www.w3.org/2000/svg" version="1.1" style="background-color:#fff;-webkit-font-smoothing:antialiased" width="850" height="600" font-family="'Helvetica Neue',Helvetica,Arial,sans-serif" font-size="18" text-rendering="optimizeLegibility"><g class="ChartTab"><g class="HeaderView"><g opacity=".8" transform="matrix(.27 0 0 .27 778 15)"><a xmlns:xlink="http://www.w3.org/1999/xlink" xlink:href="https://ourworldindata.org" target="_blank"><g><path fill="#1B2543" d="M0 0h211.2v130.1H0z"/><path fill="#E63912" d="M0 112.2h211.2v17.9H0z"/><g><path fill="none" d="M1.2 12.3h210.2v99.2H1.2z"/><path fill="#FFF" d="M37.8 32.2c0 12.7-7.7 19.4-17.1 19.4-9.7 0-16.6-7.5-16.6-18.7 0-11.7 7.3-19.3 17.1-19.3 10.1.1 16.6 7.7 16.6 18.6zm-28.6.6c0 7.9 4.3 14.9 11.8 14.9 7.5 0 11.8-6.9 11.8-15.3 0-7.3-3.8-14.9-11.8-14.9-7.9 0-11.8 7.3-11.8 15.3zM62.7 43.8c0 2.7.1 5.1.2 7.2h-4.3l-.3-4.3h-.1c-1.3 2.1-4 4.9-8.8 4.9-4.2 0-9.1-2.3-9.1-11.6V24.6h4.8v14.6c0 5 1.5 8.4 5.9 8.4 3.2 0 5.5-2.2 6.3-4.4.3-.7.4-1.6.4-2.5V24.6h4.8v19.2zM67.3 32.8c0-3.1-.1-5.8-.2-8.2h4.2l.2 5.2h.2c1.2-3.5 4.1-5.8 7.3-5.8.5 0 .9.1 1.4.2v4.5c-.5-.1-1-.2-1.6-.2-3.4 0-5.8 2.6-6.5 6.2-.1.7-.2 1.4-.2 2.2V51h-4.8V32.8zM95.4 51L86 14.2h5l4.4 18.6c1.1 4.6 2.1 9.2 2.7 12.7h.1c.6-3.7 1.8-8 3-12.8l4.9-18.5h5l4.5 18.7c1 4.4 2 8.7 2.6 12.6h.1c.8-4 1.8-8.1 3-12.7l4.9-18.5h4.9L120.6 51h-5L111 31.9c-1.1-4.7-1.9-8.3-2.4-12h-.1c-.7 3.7-1.5 7.3-2.8 12L100.4 51h-5zM154.9 37.6c0 9.8-6.8 14-13.2 14-7.2 0-12.7-5.2-12.7-13.6 0-8.8 5.8-14 13.1-14 7.7 0 12.8 5.5 12.8 13.6zm-21 .3c0 5.8 3.3 10.1 8 10.1 4.6 0 8-4.3 8-10.3 0-4.5-2.2-10.1-7.9-10.1s-8.1 5.2-8.1 10.3zM158.2 32.8c0-3.1-.1-5.8-.2-8.2h4.2l.2 5.2h.2c1.2-3.5 4.1-5.8 7.3-5.8.5 0 .9.1 1.4.2v4.5c-.5-.1-1-.2-1.6-.2-3.4 0-5.8 2.6-6.5 6.2-.1.7-.2 1.4-.2 2.2V51h-4.8V32.8zM173.5 12.3h4.8V51h-4.8V12.3zM206.5 12.3v31.9c0 2.3.1 5 .2 6.8h-4.3l-.2-4.6h-.2c-1.5 2.9-4.7 5.2-9 5.2-6.4 0-11.3-5.4-11.3-13.4-.1-8.8 5.4-14.2 11.9-14.2 4 0 6.8 1.9 8 4h.1V12.3h4.8zm-4.8 23.1c0-.6-.1-1.4-.2-2a7 7 0 00-6.9-5.6c-5 0-7.9 4.4-7.9 10.2 0 5.3 2.6 9.8 7.8 9.8 3.2 0 6.2-2.1 7.1-5.7.2-.7.2-1.3.2-2.1v-4.6zM42.8 64c.1 1.6-1.1 2.9-3.1 2.9-1.7 0-2.9-1.3-2.9-2.9 0-1.7 1.3-3 3-3 1.9 0 3 1.3 3 3zm-5.4 33.8V71.4h4.8v26.4h-4.8zM47.5 78.6c0-2.7-.1-5-.2-7.1h4.3l.3 4.4h.1c1.3-2.5 4.4-5 8.8-5 3.7 0 9.4 2.2 9.4 11.2v15.8h-4.8V82.6c0-4.3-1.6-7.8-6.1-7.8-3.2 0-5.6 2.2-6.5 4.9-.2.6-.3 1.4-.3 2.2v15.9h-4.8V78.6zM84 61.6c2.9-.4 6.3-.8 10.1-.8 6.8 0 11.7 1.6 14.9 4.6 3.3 3 5.2 7.3 5.2 13.2 0 6-1.9 10.9-5.3 14.3-3.4 3.4-9.1 5.3-16.3 5.3-3.4 0-6.2-.2-8.6-.4V61.6zm4.8 32.5c1.2.2 3 .3 4.8.3 10.2 0 15.7-5.7 15.7-15.6.1-8.7-4.9-14.2-14.9-14.2-2.5 0-4.3.2-5.6.5v29zM132.1 97.8l-.4-3.3h-.2a9.79 9.79 0 01-8.1 3.9c-5.4 0-8.1-3.8-8.1-7.6 0-6.4 5.7-9.9 15.9-9.8v-.5c0-2.2-.6-6.1-6-6.1-2.5 0-5 .8-6.9 2l-1.1-3.2c2.2-1.4 5.4-2.3 8.7-2.3 8.1 0 10.1 5.5 10.1 10.8v9.9c0 2.3.1 4.5.4 6.3h-4.3zm-.7-13.4c-5.3-.1-11.2.8-11.2 5.9 0 3.1 2.1 4.6 4.5 4.6 3.4 0 5.6-2.2 6.4-4.4.2-.5.3-1 .3-1.5v-4.6zM146.6 63.9v7.6h6.9v3.7h-6.9v14.2c0 3.3.9 5.1 3.6 5.1 1.3 0 2.2-.2 2.8-.3l.2 3.6c-.9.4-2.4.7-4.3.7-2.2 0-4-.7-5.2-2-1.4-1.4-1.9-3.8-1.9-6.9V75.1h-4.1v-3.7h4.1v-6.3l4.8-1.2zM171.4 97.8l-.4-3.3h-.2a9.79 9.79 0 01-8.1 3.9c-5.4 0-8.1-3.8-8.1-7.6 0-6.4 5.7-9.9 15.9-9.8v-.5c0-2.2-.6-6.1-6-6.1-2.5 0-5 .8-6.9 2l-1.1-3.2c2.2-1.4 5.4-2.3 8.7-2.3 8.1 0 10.1 5.5 10.1 10.8v9.9c0 2.3.1 4.5.4 6.3h-4.3zm-.7-13.4c-5.3-.1-11.2.8-11.2 5.9 0 3.1 2.1 4.6 4.5 4.6 3.4 0 5.6-2.2 6.4-4.4.2-.5.3-1 .3-1.5v-4.6z"/></g></g></a></g><a href="https://ourworldindata.org/grapher/infant-mortality-rates-uk" target="_blank"><text font-size="25.2" x="15" y="35.2" fill="#555"><tspan x="15" y="35.16">Infant mortality rates in England and Wales</tspan></text></a><text font-size="14.4" x="15" y="53.7" fill="#666"><tspan x="15" y="53.72">Infant mortality rates in England and Wales across the various periods of the first year of life. Mortality rates are</tspan><tspan x="15" y="69.56">measured as the number of deaths per 1,000 live births for neonatal and postneonatal variables; and per 1,000 total</tspan><tspan x="15" y="85.4">births for perinatal and infant mortality. Note: the rise in infant mortality in 2015 and 2016 may be the result of</tspan><tspan x="15" y="101.24">changes in reporting; an increasing number of infants born below the extreme age of viability (22 weeks of gestation)</tspan><tspan x="15" y="117.08">have been recorded in these years.</tspan></text></g><g class="LineChart"><defs><clipPath id="a"><path d="M19.07 0h830v835.8h-830z"/></clipPath></defs><g class="AxisBoxView"><g class="HorizontalAxis" fill="#666" text-anchor="middle" font-size="16.2"><text x="29.1" y="556.5">1993</text><text x="75.8" y="556.5">1995</text><text x="192.7" y="556.5">2000</text><text x="309.6" y="556.5">2005</text><text x="426.5" y="556.5">2010</text><text x="566.7" y="556.5">2016</text></g><g class="VerticalAxis" fill="#666" dominant-baseline="middle" text-anchor="end" font-size="16.2"><text x="24.07" y="535.3">0</text><text x="24.07" y="446.2">2</text><text x="24.07" y="357">4</text><text x="24.07" y="267.9">6</text><text x="24.07" y="178.7">8</text></g><g class="AxisGridLines"><path stroke="#ccc" d="M29.07 535.3h537.65"/><path stroke="#ddd" stroke-dasharray="3,2" d="M29.07 446.2h537.65M29.07 357h537.65M29.07 267.9h537.65M29.07 178.7h537.65"/></g></g><g clip-path="url(#a)"><g class="HeightedLegend clickable"><g class="legendMark"><text font-size="13.5" x="571.7" y="245.2" fill="#f6a324"><tspan x="571.72" y="245.15">Perinatal (stillbirths &amp; less than 7 days)</tspan></text></g><g class="legendMark"><text font-size="13.5" x="571.7" y="369.9" fill="#34983f"><tspan x="571.72" y="369.95">Infant (less than 1 year)</tspan></text></g><g class="legendMark"><text font-size="13.5" x="571.7" y="419.1" fill="#ca2628"><tspan x="571.72" y="419.05">Neonatal (less than 28 days)</tspan></text></g><g class="legendMark"><text font-size="13.5" x="571.7" y="490.4" fill="#3360a9"><tspan x="571.72" y="490.35">Postneonatal (28 days to 1 year)</tspan></text></g></g><g class="Lines"><g class="key-England-and-Wales_0"><path stroke="#34983f" stroke-linecap="round" d="M29 255l23 4 24 4h23l24 9 23 9 23-4 24 9 23 9 24 9 23-5 23 13h47l23 14 24 4 23 5 24 9 23 4 23 9 24 9 23 9 23-5 24-4" fill="none" stroke-width="1.5"/><g fill="#34983f"><circle cx="29" cy="255" r="2"/><circle cx="52" cy="259" r="2"/><circle cx="76" cy="263" r="2"/><circle cx="99" cy="263" r="2"/><circle cx="123" cy="272" r="2"/><circle cx="146" cy="281" r="2"/><circle cx="169" cy="277" r="2"/><circle cx="193" cy="286" r="2"/><circle cx="216" cy="295" r="2"/><circle cx="240" cy="304" r="2"/><circle cx="263" cy="299" r="2"/><circle cx="286" cy="312" r="2"/><circle cx="310" cy="312" r="2"/><circle cx="333" cy="312" r="2"/><circle cx="356" cy="326" r="2"/><circle cx="380" cy="330" r="2"/><circle cx="403" cy="335" r="2"/><circle cx="427" cy="344" r="2"/><circle cx="450" cy="348" r="2"/><circle cx="473" cy="357" r="2"/><circle cx="497" cy="366" r="2"/><circle cx="520" cy="375" r="2"/><circle cx="543" cy="370" r="2"/><circle cx="567" cy="366" r="2"/></g></g><g class="key-England-and-Wales_1"><path stroke="#ca2628" stroke-linecap="round" d="M29 348l23 5 24-5 23 5 24 9 23 4 23-4h24l23 13h47l23 4 24 5 23-5 23 9 24 5 23 4 24 9h23l23 5 24 4 23 9 23-5 24-4" fill="none" stroke-width="1.5"/><g fill="#ca2628"><circle cx="29" cy="348" r="2"/><circle cx="52" cy="353" r="2"/><circle cx="76" cy="348" r="2"/><circle cx="99" cy="353" r="2"/><circle cx="123" cy="362" r="2"/><circle cx="146" cy="366" r="2"/><circle cx="169" cy="362" r="2"/><circle cx="193" cy="362" r="2"/><circle cx="216" cy="375" r="2"/><circle cx="240" cy="375" r="2"/><circle cx="263" cy="375" r="2"/><circle cx="286" cy="379" r="2"/><circle cx="310" cy="384" r="2"/><circle cx="333" cy="379" r="2"/><circle cx="356" cy="388" r="2"/><circle cx="380" cy="393" r="2"/><circle cx="403" cy="397" r="2"/><circle cx="427" cy="406" r="2"/><circle cx="450" cy="406" r="2"/><circle cx="473" cy="411" r="2"/><circle cx="497" cy="415" r="2"/><circle cx="520" cy="424" r="2"/><circle cx="543" cy="419" r="2"/><circle cx="567" cy="415" r="2"/></g></g><g class="key-England-and-Wales_2"><path stroke="#f6a324" stroke-linecap="round" d="M29 139h23l24 4 23 9 24 13 23 5h47l23 9 24-14 23-13 23 9 24 18h23l23 13 24 9 23-4 24 9 23-5 23 22 24 14 23 4 23 5 24-5" fill="none" stroke-width="1.5"/><g fill="#f6a324"><circle cx="29" cy="139" r="2"/><circle cx="52" cy="139" r="2"/><circle cx="76" cy="143" r="2"/><circle cx="99" cy="152" r="2"/><circle cx="123" cy="165" r="2"/><circle cx="146" cy="170" r="2"/><circle cx="169" cy="170" r="2"/><circle cx="193" cy="170" r="2"/><circle cx="216" cy="179" r="2"/><circle cx="240" cy="165" r="2"/><circle cx="263" cy="152" r="2"/><circle cx="286" cy="161" r="2"/><circle cx="310" cy="179" r="2"/><circle cx="333" cy="179" r="2"/><circle cx="356" cy="192" r="2"/><circle cx="380" cy="201" r="2"/><circle cx="403" cy="197" r="2"/><circle cx="427" cy="206" r="2"/><circle cx="450" cy="201" r="2"/><circle cx="473" cy="223" r="2"/><circle cx="497" cy="237" r="2"/><circle cx="520" cy="241" r="2"/><circle cx="543" cy="246" r="2"/><circle cx="567" cy="241" r="2"/></g></g><g class="key-England-and-Wales_3"><path stroke="#3360a9" stroke-linecap="round" d="M29 442h23l24 4h47l23 5h23l24 9 23-9 24 9h23l23 4h24l23 4h23l24 5h23l24 4 23 5h47l23 4h47" fill="none" stroke-width="1.5"/><g fill="#3360a9"><circle cx="29" cy="442" r="2"/><circle cx="52" cy="442" r="2"/><circle cx="76" cy="446" r="2"/><circle cx="99" cy="446" r="2"/><circle cx="123" cy="446" r="2"/><circle cx="146" cy="451" r="2"/><circle cx="169" cy="451" r="2"/><circle cx="193" cy="460" r="2"/><circle cx="216" cy="451" r="2"/><circle cx="240" cy="460" r="2"/><circle cx="263" cy="460" r="2"/><circle cx="286" cy="464" r="2"/><circle cx="310" cy="464" r="2"/><circle cx="333" cy="468" r="2"/><circle cx="356" cy="468" r="2"/><circle cx="380" cy="473" r="2"/><circle cx="403" cy="473" r="2"/><circle cx="427" cy="477" r="2"/><circle cx="450" cy="482" r="2"/><circle cx="473" cy="482" r="2"/><circle cx="497" cy="482" r="2"/><circle cx="520" cy="486" r="2"/><circle cx="543" cy="486" r="2"/><circle cx="567" cy="486" r="2"/></g></g></g></g></g><g class="SourcesFooter" fill="#777"><g class="clickable" fill="#777"><text font-size="12.6" x="15" y="581.6"><tspan x="15" y="581.58">Source: UK Office for National Statistics (ONS)</tspan></text></g><text font-size="12.6" x="775.4" y="581.6"><tspan x="775.4" y="581.58"><a class="cclogo" href="http://creativecommons.org/licenses/by-sa/4.0/deed.en_US" target="_blank" fill="#777">CC BY-SA</a></tspan></text></g></g></svg>

<svg xmlns="http://www.w3.org/2000/svg" version="1.1" style="font-family: 'Helvetica Neue', Helvetica, Arial, sans-serif; font-size: 18px; background-color: white; text-rendering: optimizeLegibility; -webkit-font-smoothing: antialiased;" width="850" height="600"><g class="ChartTab"><g class="HeaderView"><g opacity="0.8" transform="translate(778, 15) scale(0.27)"><a xmlns:xlink="http://www.w3.org/1999/xlink" xlink:href="https://ourworldindata.org" target="_blank"><g><rect x="0" y="0" fill="#1B2543" width="211.2" height="130.1"/><rect x="0" y="112.2" fill="#E63912" width="211.2" height="17.9"/><g><rect x="1.2" y="12.3" fill="none" width="210.2" height="99.2"/><path fill="#FFFFFF" d="M37.8,32.2c0,12.7-7.7,19.4-17.1,19.4c-9.7,0-16.6-7.5-16.6-18.7c0-11.7,7.3-19.3,17.1-19.3 C31.3,13.7,37.8,21.3,37.8,32.2z M9.2,32.8c0,7.9,4.3,14.9,11.8,14.9c7.5,0,11.8-6.9,11.8-15.3c0-7.3-3.8-14.9-11.8-14.9 C13.1,17.5,9.2,24.8,9.2,32.8z"/><path fill="#FFFFFF" d="M62.7,43.8c0,2.7,0.1,5.1,0.2,7.2h-4.3l-0.3-4.3h-0.1c-1.3,2.1-4,4.9-8.8,4.9c-4.2,0-9.1-2.3-9.1-11.6 V24.6h4.8v14.6c0,5,1.5,8.4,5.9,8.4c3.2,0,5.5-2.2,6.3-4.4c0.3-0.7,0.4-1.6,0.4-2.5V24.6h4.8V43.8z"/><path fill="#FFFFFF" d="M67.3,32.8c0-3.1-0.1-5.8-0.2-8.2h4.2l0.2,5.2h0.2c1.2-3.5,4.1-5.8,7.3-5.8c0.5,0,0.9,0.1,1.4,0.2v4.5 c-0.5-0.1-1-0.2-1.6-0.2c-3.4,0-5.8,2.6-6.5,6.2c-0.1,0.7-0.2,1.4-0.2,2.2V51h-4.8V32.8z"/><path fill="#FFFFFF" d="M95.4,51l-9.4-36.8h5l4.4,18.6c1.1,4.6,2.1,9.2,2.7,12.7h0.1c0.6-3.7,1.8-8,3-12.8l4.9-18.5h5l4.5,18.7 c1,4.4,2,8.7,2.6,12.6h0.1c0.8-4,1.8-8.1,3-12.7l4.9-18.5h4.9L120.6,51h-5L111,31.9c-1.1-4.7-1.9-8.3-2.4-12h-0.1 c-0.7,3.7-1.5,7.3-2.8,12L100.4,51H95.4z"/><path fill="#FFFFFF" d="M154.9,37.6c0,9.8-6.8,14-13.2,14c-7.2,0-12.7-5.2-12.7-13.6c0-8.8,5.8-14,13.1-14 C149.8,24,154.9,29.5,154.9,37.6z M133.9,37.9c0,5.8,3.3,10.1,8,10.1c4.6,0,8-4.3,8-10.3c0-4.5-2.2-10.1-7.9-10.1 C136.3,27.6,133.9,32.8,133.9,37.9z"/><path fill="#FFFFFF" d="M158.2,32.8c0-3.1-0.1-5.8-0.2-8.2h4.2l0.2,5.2h0.2c1.2-3.5,4.1-5.8,7.3-5.8c0.5,0,0.9,0.1,1.4,0.2v4.5 c-0.5-0.1-1-0.2-1.6-0.2c-3.4,0-5.8,2.6-6.5,6.2c-0.1,0.7-0.2,1.4-0.2,2.2V51h-4.8V32.8z"/><path fill="#FFFFFF" d="M173.5,12.3h4.8V51h-4.8V12.3z"/><path fill="#FFFFFF" d="M206.5,12.3v31.9c0,2.3,0.1,5,0.2,6.8h-4.3l-0.2-4.6H202c-1.5,2.9-4.7,5.2-9,5.2 c-6.4,0-11.3-5.4-11.3-13.4c-0.1-8.8,5.4-14.2,11.9-14.2c4,0,6.8,1.9,8,4h0.1V12.3H206.5z M201.7,35.4c0-0.6-0.1-1.4-0.2-2 c-0.7-3.1-3.3-5.6-6.9-5.6c-5,0-7.9,4.4-7.9,10.2c0,5.3,2.6,9.8,7.8,9.8c3.2,0,6.2-2.1,7.1-5.7c0.2-0.7,0.2-1.3,0.2-2.1V35.4z"/><path fill="#FFFFFF" d="M42.8,64c0.1,1.6-1.1,2.9-3.1,2.9c-1.7,0-2.9-1.3-2.9-2.9c0-1.7,1.3-3,3-3C41.7,61,42.8,62.3,42.8,64z M37.4,97.8V71.4h4.8v26.4H37.4z"/><path fill="#FFFFFF" d="M47.5,78.6c0-2.7-0.1-5-0.2-7.1h4.3l0.3,4.4h0.1c1.3-2.5,4.4-5,8.8-5c3.7,0,9.4,2.2,9.4,11.2v15.8h-4.8 V82.6c0-4.3-1.6-7.8-6.1-7.8c-3.2,0-5.6,2.2-6.5,4.9c-0.2,0.6-0.3,1.4-0.3,2.2v15.9h-4.8V78.6z"/><path fill="#FFFFFF" d="M84,61.6c2.9-0.4,6.3-0.8,10.1-0.8c6.8,0,11.7,1.6,14.9,4.6c3.3,3,5.2,7.3,5.2,13.2c0,6-1.9,10.9-5.3,14.3 c-3.4,3.4-9.1,5.3-16.3,5.3c-3.4,0-6.2-0.2-8.6-0.4V61.6z M88.8,94.1c1.2,0.2,3,0.3,4.8,0.3c10.2,0,15.7-5.7,15.7-15.6 c0.1-8.7-4.9-14.2-14.9-14.2c-2.5,0-4.3,0.2-5.6,0.5V94.1z"/><path fill="#FFFFFF" d="M132.1,97.8l-0.4-3.3h-0.2c-1.5,2.1-4.3,3.9-8.1,3.9c-5.4,0-8.1-3.8-8.1-7.6c0-6.4,5.7-9.9,15.9-9.8v-0.5 c0-2.2-0.6-6.1-6-6.1c-2.5,0-5,0.8-6.9,2l-1.1-3.2c2.2-1.4,5.4-2.3,8.7-2.3c8.1,0,10.1,5.5,10.1,10.8v9.9c0,2.3,0.1,4.5,0.4,6.3 H132.1z M131.4,84.4c-5.3-0.1-11.2,0.8-11.2,5.9c0,3.1,2.1,4.6,4.5,4.6c3.4,0,5.6-2.2,6.4-4.4c0.2-0.5,0.3-1,0.3-1.5V84.4z"/><path fill="#FFFFFF" d="M146.6,63.9v7.6h6.9v3.7h-6.9v14.2c0,3.3,0.9,5.1,3.6,5.1c1.3,0,2.2-0.2,2.8-0.3l0.2,3.6 c-0.9,0.4-2.4,0.7-4.3,0.7c-2.2,0-4-0.7-5.2-2c-1.4-1.4-1.9-3.8-1.9-6.9V75.1h-4.1v-3.7h4.1v-6.3L146.6,63.9z"/><path fill="#FFFFFF" d="M171.4,97.8l-0.4-3.3h-0.2c-1.5,2.1-4.3,3.9-8.1,3.9c-5.4,0-8.1-3.8-8.1-7.6c0-6.4,5.7-9.9,15.9-9.8v-0.5 c0-2.2-0.6-6.1-6-6.1c-2.5,0-5,0.8-6.9,2l-1.1-3.2c2.2-1.4,5.4-2.3,8.7-2.3c8.1,0,10.1,5.5,10.1,10.8v9.9c0,2.3,0.1,4.5,0.4,6.3 H171.4z M170.7,84.4c-5.3-0.1-11.2,0.8-11.2,5.9c0,3.1,2.1,4.6,4.5,4.6c3.4,0,5.6-2.2,6.4-4.4c0.2-0.5,0.3-1,0.3-1.5V84.4z"/></g></g></a></g><a href="https://ourworldindata.org/grapher/infant-mortality-rates-uk" target="_blank"><text font-size="25.20" x="15.0" y="35.2" fill="#555"><tspan x="15" y="35.160000000000004">Infant mortality rates in England and Wales</tspan></text></a><text font-size="14.40" x="15.0" y="53.7" fill="#666"><tspan x="15" y="53.72">Infant mortality rates in England and Wales across the various periods of the first year of life. Mortality rates are</tspan><tspan x="15" y="69.56">measured as the number of deaths per 1,000 live births for neonatal and postneonatal variables; and per 1,000 total</tspan><tspan x="15" y="85.4">births for perinatal and infant mortality. Note: the rise in infant mortality in 2015 and 2016 may be the result of</tspan><tspan x="15" y="101.24000000000001">changes in reporting; an increasing number of infants born below the extreme age of viability (22 weeks of gestation)</tspan><tspan x="15" y="117.08000000000001">have been recorded in these years.</tspan></text></g><g class="LineChart"><defs><clipPath id="boundsClip-1"><rect x="19.072000000000003" y="0" width="830" height="835.8"></rect></clipPath></defs><g class="AxisBoxView"><g class="HorizontalAxis"><text x="29.1" y="556.5" fill="#666" text-anchor="middle" font-size="16.2">1993</text><text x="75.8" y="556.5" fill="#666" text-anchor="middle" font-size="16.2">1995</text><text x="192.7" y="556.5" fill="#666" text-anchor="middle" font-size="16.2">2000</text><text x="309.6" y="556.5" fill="#666" text-anchor="middle" font-size="16.2">2005</text><text x="426.5" y="556.5" fill="#666" text-anchor="middle" font-size="16.2">2010</text><text x="566.7" y="556.5" fill="#666" text-anchor="middle" font-size="16.2">2016</text></g><g class="VerticalAxis"><text x="24.07" y="535.3" fill="#666" dominant-baseline="middle" text-anchor="end" font-size="16.2">0</text><text x="24.07" y="446.2" fill="#666" dominant-baseline="middle" text-anchor="end" font-size="16.2">2</text><text x="24.07" y="357" fill="#666" dominant-baseline="middle" text-anchor="end" font-size="16.2">4</text><text x="24.07" y="267.9" fill="#666" dominant-baseline="middle" text-anchor="end" font-size="16.2">6</text><text x="24.07" y="178.7" fill="#666" dominant-baseline="middle" text-anchor="end" font-size="16.2">8</text></g><g class="AxisGridLines"><line x1="29.07" y1="535.3" x2="566.72" y2="535.3" stroke="#ccc"></line><line x1="29.07" y1="446.2" x2="566.72" y2="446.2" stroke="#ddd" stroke-dasharray="3,2"></line><line x1="29.07" y1="357" x2="566.72" y2="357" stroke="#ddd" stroke-dasharray="3,2"></line><line x1="29.07" y1="267.9" x2="566.72" y2="267.9" stroke="#ddd" stroke-dasharray="3,2"></line><line x1="29.07" y1="178.7" x2="566.72" y2="178.7" stroke="#ddd" stroke-dasharray="3,2"></line></g></g><g clip-path="url(#boundsClip-1)"><g class="HeightedLegend clickable"><g class="legendMark"><rect x="566.72" y="234.35" width="268.28000000000003" height="13.5" fill="#fff" opacity="0"></rect><text font-size="13.50" x="571.7" y="245.2" fill="#f6a324"><tspan x="571.72" y="245.15">Perinatal (stillbirths &amp; less than 7 days)</tspan></text></g><g class="legendMark"><rect x="566.72" y="359.15" width="177.425" height="13.5" fill="#fff" opacity="0"></rect><text font-size="13.50" x="571.7" y="369.9" fill="#34983f"><tspan x="571.72" y="369.95">Infant (less than 1 year)</tspan></text></g><g class="legendMark"><rect x="566.72" y="408.25" width="207.53" height="13.5" fill="#fff" opacity="0"></rect><text font-size="13.50" x="571.7" y="419.1" fill="#ca2628"><tspan x="571.72" y="419.05">Neonatal (less than 28 days)</tspan></text></g><g class="legendMark"><rect x="566.72" y="479.55" width="231.02" height="13.5" fill="#fff" opacity="0"></rect><text font-size="13.50" x="571.7" y="490.4" fill="#3360a9"><tspan x="571.72" y="490.35">Postneonatal (28 days to 1 year)</tspan></text></g></g><g class="Lines"><rect x="29" y="139" width="538" height="397" fill="rgba(255,255,255,0)" opacity="0"></rect><g class="key-England-and-Wales_0"><path stroke="#34983f" stroke-linecap="round" d="M29 255L52 259L76 263L99 263L123 272L146 281L169 277L193 286L216 295L240 304L263 299L286 312L310 312L333 312L356 326L380 330L403 335L427 344L450 348L473 357L497 366L520 375L543 370L567 366" fill="none" stroke-width="1.5"></path><g fill="#34983f"><circle cx="29" cy="255" r="2"></circle><circle cx="52" cy="259" r="2"></circle><circle cx="76" cy="263" r="2"></circle><circle cx="99" cy="263" r="2"></circle><circle cx="123" cy="272" r="2"></circle><circle cx="146" cy="281" r="2"></circle><circle cx="169" cy="277" r="2"></circle><circle cx="193" cy="286" r="2"></circle><circle cx="216" cy="295" r="2"></circle><circle cx="240" cy="304" r="2"></circle><circle cx="263" cy="299" r="2"></circle><circle cx="286" cy="312" r="2"></circle><circle cx="310" cy="312" r="2"></circle><circle cx="333" cy="312" r="2"></circle><circle cx="356" cy="326" r="2"></circle><circle cx="380" cy="330" r="2"></circle><circle cx="403" cy="335" r="2"></circle><circle cx="427" cy="344" r="2"></circle><circle cx="450" cy="348" r="2"></circle><circle cx="473" cy="357" r="2"></circle><circle cx="497" cy="366" r="2"></circle><circle cx="520" cy="375" r="2"></circle><circle cx="543" cy="370" r="2"></circle><circle cx="567" cy="366" r="2"></circle></g></g><g class="key-England-and-Wales_1"><path stroke="#ca2628" stroke-linecap="round" d="M29 348L52 353L76 348L99 353L123 362L146 366L169 362L193 362L216 375L240 375L263 375L286 379L310 384L333 379L356 388L380 393L403 397L427 406L450 406L473 411L497 415L520 424L543 419L567 415" fill="none" stroke-width="1.5"></path><g fill="#ca2628"><circle cx="29" cy="348" r="2"></circle><circle cx="52" cy="353" r="2"></circle><circle cx="76" cy="348" r="2"></circle><circle cx="99" cy="353" r="2"></circle><circle cx="123" cy="362" r="2"></circle><circle cx="146" cy="366" r="2"></circle><circle cx="169" cy="362" r="2"></circle><circle cx="193" cy="362" r="2"></circle><circle cx="216" cy="375" r="2"></circle><circle cx="240" cy="375" r="2"></circle><circle cx="263" cy="375" r="2"></circle><circle cx="286" cy="379" r="2"></circle><circle cx="310" cy="384" r="2"></circle><circle cx="333" cy="379" r="2"></circle><circle cx="356" cy="388" r="2"></circle><circle cx="380" cy="393" r="2"></circle><circle cx="403" cy="397" r="2"></circle><circle cx="427" cy="406" r="2"></circle><circle cx="450" cy="406" r="2"></circle><circle cx="473" cy="411" r="2"></circle><circle cx="497" cy="415" r="2"></circle><circle cx="520" cy="424" r="2"></circle><circle cx="543" cy="419" r="2"></circle><circle cx="567" cy="415" r="2"></circle></g></g><g class="key-England-and-Wales_2"><path stroke="#f6a324" stroke-linecap="round" d="M29 139L52 139L76 143L99 152L123 165L146 170L169 170L193 170L216 179L240 165L263 152L286 161L310 179L333 179L356 192L380 201L403 197L427 206L450 201L473 223L497 237L520 241L543 246L567 241" fill="none" stroke-width="1.5"></path><g fill="#f6a324"><circle cx="29" cy="139" r="2"></circle><circle cx="52" cy="139" r="2"></circle><circle cx="76" cy="143" r="2"></circle><circle cx="99" cy="152" r="2"></circle><circle cx="123" cy="165" r="2"></circle><circle cx="146" cy="170" r="2"></circle><circle cx="169" cy="170" r="2"></circle><circle cx="193" cy="170" r="2"></circle><circle cx="216" cy="179" r="2"></circle><circle cx="240" cy="165" r="2"></circle><circle cx="263" cy="152" r="2"></circle><circle cx="286" cy="161" r="2"></circle><circle cx="310" cy="179" r="2"></circle><circle cx="333" cy="179" r="2"></circle><circle cx="356" cy="192" r="2"></circle><circle cx="380" cy="201" r="2"></circle><circle cx="403" cy="197" r="2"></circle><circle cx="427" cy="206" r="2"></circle><circle cx="450" cy="201" r="2"></circle><circle cx="473" cy="223" r="2"></circle><circle cx="497" cy="237" r="2"></circle><circle cx="520" cy="241" r="2"></circle><circle cx="543" cy="246" r="2"></circle><circle cx="567" cy="241" r="2"></circle></g></g><g class="key-England-and-Wales_3"><path stroke="#3360a9" stroke-linecap="round" d="M29 442L52 442L76 446L99 446L123 446L146 451L169 451L193 460L216 451L240 460L263 460L286 464L310 464L333 468L356 468L380 473L403 473L427 477L450 482L473 482L497 482L520 486L543 486L567 486" fill="none" stroke-width="1.5"></path><g fill="#3360a9"><circle cx="29" cy="442" r="2"></circle><circle cx="52" cy="442" r="2"></circle><circle cx="76" cy="446" r="2"></circle><circle cx="99" cy="446" r="2"></circle><circle cx="123" cy="446" r="2"></circle><circle cx="146" cy="451" r="2"></circle><circle cx="169" cy="451" r="2"></circle><circle cx="193" cy="460" r="2"></circle><circle cx="216" cy="451" r="2"></circle><circle cx="240" cy="460" r="2"></circle><circle cx="263" cy="460" r="2"></circle><circle cx="286" cy="464" r="2"></circle><circle cx="310" cy="464" r="2"></circle><circle cx="333" cy="468" r="2"></circle><circle cx="356" cy="468" r="2"></circle><circle cx="380" cy="473" r="2"></circle><circle cx="403" cy="473" r="2"></circle><circle cx="427" cy="477" r="2"></circle><circle cx="450" cy="482" r="2"></circle><circle cx="473" cy="482" r="2"></circle><circle cx="497" cy="482" r="2"></circle><circle cx="520" cy="486" r="2"></circle><circle cx="543" cy="486" r="2"></circle><circle cx="567" cy="486" r="2"></circle></g></g></g></g></g><g style="fill: #777;" class="SourcesFooter"><g style="fill: #777;" class="clickable"><text font-size="12.60" x="15.0" y="581.6"><tspan x="15" y="581.58">Source: UK Office for National Statistics (ONS)</tspan></text></g><text font-size="12.60" x="775.4" y="581.6"><tspan x="775.402" y="581.58"><a style="fill: #777;" class="cclogo" href="http://creativecommons.org/licenses/by-sa/4.0/deed.en_US" target="_blank">CC BY-SA</a></tspan></text></g></g></svg>
